src/components/00-materials/images-raw/Cocktail.svg

<svg width="96" height="96" viewBox="0 0 96 96" fill="none" xmlns="http://www.w3.org/2000/svg">
<path d="M47.04 52.93V87.63M47.07 52.92L82 16.37C82.2011 16.1523 82.3077 15.8637 82.2964 15.5676C82.2852 15.2714 82.157 14.9918 81.94 14.79C81.7352 14.5952 81.4627 14.4877 81.18 14.49H12.88C12.7326 14.4846 12.5856 14.5088 12.4476 14.5609C12.3096 14.613 12.1833 14.6921 12.0763 14.7936C11.9692 14.8951 11.8834 15.0169 11.824 15.152C11.7645 15.287 11.7326 15.4325 11.73 15.58C11.7247 15.8799 11.8358 16.1702 12.04 16.39L47.04 52.93L47.07 52.92Z" stroke="#00008F" stroke-width="2" stroke-linecap="round" stroke-linejoin="round"/>
<path d="M67.76 31H26.05M40.58 43.29C40.5224 44.1729 40.6454 45.0582 40.9414 45.8919C41.2374 46.7256 41.7002 47.4902 42.3016 48.1391C42.903 48.788 43.6303 49.3075 44.4392 49.6658C45.248 50.0242 46.1215 50.2139 47.0061 50.2235C47.8908 50.233 48.7681 50.0621 49.5845 49.7212C50.4009 49.3804 51.1392 48.8767 51.7544 48.2409C52.3697 47.6051 52.8488 46.8506 53.1627 46.0235C53.4766 45.1963 53.6186 44.3139 53.58 43.43C53.567 41.7304 52.8867 40.104 51.6858 38.9013C50.4849 37.6985 48.8596 37.0157 47.16 37C46.3153 36.9693 45.473 37.1076 44.6824 37.4066C43.8919 37.7057 43.169 38.1596 42.5561 38.7417C41.9433 39.3239 41.4528 40.0225 41.1135 40.7966C40.7741 41.5708 40.5928 42.4049 40.58 43.25V43.29ZM31.05 87.72H63.05H31.05ZM50.66 37.92L79.61 6.28003L50.66 37.92Z" stroke="#00008F" stroke-width="2" stroke-linecap="round" stroke-linejoin="round"/>
</svg>

<svg width="96" height="96" viewBox="0 0 96 96" fill="none" xmlns="http://www.w3.org/2000/svg"><path d="M47.04 52.93v34.7m.03-34.71L82 16.37a1.12 1.12 0 00-.06-1.58 1.09 1.09 0 00-.76-.3h-68.3a1.11 1.11 0 00-1.15 1.09c-.005.3.106.59.31.81l35 36.54.03-.01z" stroke="#00008F" stroke-width="2" stroke-linecap="round" stroke-linejoin="round"/><path d="M67.76 31H26.05m14.53 12.29a6.51 6.51 0 1013 .14A6.48 6.48 0 0047.16 37a6.352 6.352 0 00-6.58 6.25v.04zm-9.53 44.43h32-32zm19.61-49.8L79.61 6.28 50.66 37.92z" stroke="#00008F" stroke-width="2" stroke-linecap="round" stroke-linejoin="round"/></svg>
